X:1
T:Vårsång
T:W. Peterson-Berger (1867-1942)
T:Vårsång
T:©CPDL Edition may be freely distributed, duplicated, performed and recorded PA Aglert
T:©CPDL Edition may be freely distributed, duplicated, performed and recorded PA Aglert
T:©CPDL Edition may be freely distributed, duplicated, performed and recorded PA Aglert
T:©CPDL Edition may be freely distributed, duplicated, performed and recorded PA Aglert
C:W. Peterson-Berger
Z:©CPDL Edition may be freely distributed, duplicated, performed and recorded
Z:PA Aglert
%%score [ 1 2 3 4 ]
L:1/8
Q:1/4=120
M:6/8
K:C
V:1 treble nm="S"
V:2 treble nm="A"
V:3 treble-8 nm="T"
V:4 bass nm="B"
V:1
"^Con moto"!p! G |"^cresc." G3 G2 G | c3 c2 c |!f! (e3- e>d)B/G/ |!>(! A3!>)!!p! G2 G | %5
w: Det|ljus- nar, det|ljus- nar i|rym- * * den den|kla- ra, men|
!<(! A2!<)! A!>(! B2 G!>)! | A2 A!<(! B!<)!c!>(!G!>)! |!<(! E2 E e>dc!<)! |!f! (g6- | %9
w: sko- gen bi- dar|tyst och mörk * på|sun- nan- vín- dar- nas|brus.|
!>(! g3- g2!>)! G- |!pp! G3- G2)!p! G | F2 F"^cresc." A>BA | G2 G c2 B | A2 A c>dc | %14
w: |* * När|i- sen loss- nar vid|äl- vens rand, då|loss- na ä- ven mitt|
 B2 B!ff!!>(! e2 d!>)! |!f! c2 c A>BA | G2 G!>(! A2 E!>)! |!mf! F>!>(!EF G2 D!>)! |!p! E3- E2 G | %19
w: sin- nes band, då|kan jag sju- nga som|förr jag sjöng vid|smäl- tan- de dri- vors|sus, * och|
 F2 F"^cresc." A>BA | G2 G c2 B | A2 A c>dc | B2 B!ff!!>(! e2 d!>)! |!f! c2 c!>(! A>BA!>)! | %24
w: allt vad hjär- tat i|vin- ter drömt om|vänt och vår- ligt och|varmt och ömt, det|vak- nar upp till en|
!<(! G2 G!<)! A2!>(! E!>)! |!p!!<(! F2!<)!!f! e (d!>(!c)!>)!d |!p! c3!<(! C2 C!<)! |!f! (c6- | %28
w: verk- lig- het, så|vid och blå * och|ljus, o så|ljus!|
!pp! c3- c2) z |] %29
w: |
V:2
!p! E |"^cresc." EEE EEE | EEE EEE |!f! GGG FFF |!>(! FF!>)!F!p! EEE |!<(! E2 E!<)!!>(! E2 E!>)! | %6
w: Det|ljus- nar, det ljus- nar i|rym- den den kla- ra, Det|ljus- nar, det ljus- nar i|rym- den den kla- ra, men|sko- gen bi- dar|
 E2 E!<(! E2!<)!!>(! E!>)! |!<(! E2 E ^F>FF!<)! |!f! (G6- | G3-!>(! G2!>)! D- | %10
w: tyst och mörk på|sun- nan- vín- dar- nas|brus.||
!pp! B,3- B,2)!p! B, | D2 D"^cresc." F>GF | E2 G G2 G | G2 F A>BA | A2 G!ff!!>(! B2 B!>)! | %15
w: * * När|i- sen loss- nar vid|äl- vens rand, då|loss- na ä- ven mitt|sin- nes band, då|
!f! A2 A F>GF | E2 E!>(! E2 C!>)! |!mf! C>!>(!CC B,2 B,!>)! |!p! C3- C2 E | D2 D"^cresc." F>GF | %20
w: kan jag sju- nga som|förr jag sjöng vid|smäl- tan- de dri- vors|sus, * och|allt vad hjär- tat i|
 E2 G G2 G | G2 F A>BA | A2 G!ff!!>(! B2 B!>)! |!f! A2 A!>(! F>GF!>)! |!<(! E2 E!<)! E2!>(! C!>)! | %25
w: vin- ter drömt om|vänt och vår- ligt och|varmt och ömt, det|vak- nar upp till en|verk- lig- het, så|
!p!!<(! D2!<)!!f! F F2!>(! F!>)! |!p! E3!<(! C2 C!<)! |!f! (_A6 |!pp! G3- G2) z |] %29
w: vid och blå och|ljus, o så|ljus!||
V:3
!p! c |"^cresc." ccc ccc | ccc ccc |!f! ccc BBB |!>(! cc!>)!c!p! ccc |!<(! c2 c!<)!!>(! c2 c!>)! | %6
w: Det|ljus- nar, det ljus- nar i|rym- den den kla- ra, Det|ljus- nar, det ljus- nar i|rym- den den kla- ra, men|sko- gen bi- dar|
 c3-!<(! c2!<)!!>(! c!>)! |!<(! c3- c>B-!<)!A |!f! B2 c e>dc | (d6 |!pp!!>(! D3- D2)!p! G!>)! | %11
w: tyst * och|mörk * på *|sun- nan- vín- dar- nas|brus.|* * När|
 A2 A"^cresc." B>BB | B2 c e2 d | c2 c e>fe | d2 d!ff!!>(! f2 f!>)! |!f! e2 e d>dd | %16
w: i- sen loss- nar vid|äl- vens rand, då|loss- na ä- ven mitt|sin- nes band, då|kan jag sju- nga som|
 e2 c!>(! c2!>)! A |!mf! A>!>(!AA G3-!>)! |!p! G2 G G2 A | A2 A"^cresc." B>BB | B2 c e2 d | %21
w: förr jag sjöng vid|smäl- tan- de dri-|* vors sus, och|allt vad hjär- tat i|vin- ter drömt om|
 c2 c e>fe | d2 d!ff!!>(! g2 f!>)! |!f! e2 e!>(! d>d!>)!d |!<(! e2 c!<)!!>(! c2 A!>)! | %25
w: vänt och vår- ligt och|varmt och ömt, det|vak- nar upp till en|verk- lig- het, så|
!p!!<(! A2!<)!!f! c (B!>(!A)B!>)! |!p! G3!<(! c2 c!<)! |!f! (_e6 |!pp! !courtesy!=e3- e2) z |] %29
w: vid och blå * och|ljus, o så|ljus!||
V:4
!p! C |"^cresc." CCC CCC | A,A,A, A,A,A, |!f! G,G,G, G,G,G, |!>(! C,C,C,!>)!!p! C,C,C | %5
w: Det|ljus- nar, det ljus- nar i|rym- den den kla- ra, Det|ljus- nar, det ljus- nar i|rym- den den kla- ra, men|
!<(! A,2 A,!<)!!>(! G,2 B,!>)! | A,3!<(! G,2!<)!!>(! B,!>)! |!<(! A,3 D,3!<)! |!f! E,2 E, C>G,E, | %9
w: sko- gen bi- dar|tyst * och|mörk på|sun- nan- vín- dar- nas|
 (G,6 |!pp!!>(! (G,,3) G,,2)!p! G,!>)! | D,2 D,"^cresc." D,>D,D, | E,2 E, E,2 E, | %13
w: brus.|* * När|i- sen loss- nar vid|äl- vens rand, då|
 F,2 F, F,>F,^F, | G,2 G,!ff!!>(! G,2 ^G,!>)! |!f! A,2 A, B,>B,B, | C2 C!>(! A,2 A,!>)! | %17
w: loss- na ä- ven mitt|sin- nes band, då|kan jag sju- nga som|förr jag sjöng vid|
!mf! D,>!>(!D,D, G,,2 G,,!>)! |!p! C,3- C,2 ^C, | D,2 D,"^cresc." D,>D,D, | E,2 E, E,2 E, | %21
w: smäl- tan- de dri- vors|sus, * och|allt vad hjär- tat i|vin- ter drömt om|
 F,2 F, F,>F,^F, | G,2 G,!ff!!>(! G,2 ^G,!>)! |!f! A,2 A,!>(! B,>B,!>)!B, | %24
w: vänt och vår- ligt och|varmt och ömt, det|vak- nar upp till en|
!<(! C2 C!<)!!>(! A,2 A,!>)! |!p!!<(! D,2!<)!!f! D, G,2!>(! G,,!>)! |!p! C,3!<(! C2 C!<)! | %27
w: verk- lig- het, så|vid och blå och|ljus, o så|
!f! (_A,6 |!pp! C3- C2) z |] %29
w: ljus!||

